X:1
T:大提琴练习曲_Book1_P18_No.26
T:大提琴练习曲_Book1_P20_No.27
L:1/8
Q:1/4=40
M:4/4
K:G
V:1 bass nm="大提琴" snm="Vc."
V:1
!mf! (G,F,E,D, G,F,E,D,) | (G,F,E,D, DB,A,G,) | (G,F,E,D, G,F,E,D,) | (G,F,E,D, DCB,A,) | %4
 (B,A,G,F, G,F,E,D,) | (E,D,C,B,, C,B,,A,,G,,) | (F,,!<(!G,,A,,B,, C,D,E,F,)!<)! | %7
 (G,F,E,F, G,A,B,^C) |!>(! (D^CB,A, DCB,A,)!>)! | (B,A,G,F, G,F,E,D,) | %10
!<(! (^C,B,,A,,B,, C,D,E,F,)!<)! | (G,F,G,F, G,F,G,F,) |!>(! (G,F,E,F, G,F,E,F,)!>)! | %13
 (G,F,E,D, !4!^C,!2!B,,!1!A,,G,,) |!<(! (!4!F,,!1!D,,!2!E,,!4!F,, !0!G,,!1!A,,!2!B,,!4!^C,)!<)! | %15
 (D,E,!3!F,!4!G, !0!A,B,=CA,) |!f! (G,F,E,F, G,F,E,G,) | (CB,A,B, CB,A,G,) | (F,E,D,E, F,E,D,F,) | %19
 (B,A,G,A, B,A,G,F,) | (E,D,C,D, E,F,G,E,) |!>(! (A,B,A,G, F,G,F,E,)!>)! | %22
!mf! (B,,2 E,F, G,F,E,G,) |"_cresc." (B,CB,C B,A,G,F,) |!f!!<(! (E,F,G,A,!>(! B,A,G,F,)!<)!!>)! | %25
!<(! (E,F,G,A,!>(! B,G,F,E,)!<)!!>)! |!<(! (F,G,A,B,!>(! CB,A,G,)!<)!!>)! | %27
!<(! (F,G,A,B,!>(! CA,G,F,)!<)!!>)! |!<(! (G,A,B,C!>(! DCB,A,)!<)!!>)! | %29
!<(! (G,A,B,C!>(! DB,A,G,)!<)!!>)! |"_dim." (A,B,CB, A,G,F,E,) | (D,E,F,G, A,B,CA,) | %32
!f! (G,F,E,D, G,F,E,D,) | (G,F,E,D, DB,A,G,) | (G,F,E,D, G,F,E,D,) | (G,F,E,D, DCB,A,) | %36
 (B,A,G,F, G,F,E,D,) | (E,D,C,D, E,G,A,B,) | (CB,A,B, A,G,F,G,) | (F,E,D,E, F,A,B,C) | %40
 (DCB,A, B,!4!^G,!2!F,E,) | (!2!CB,A,G, A,!3!F,E,D,) | (B,A,G,F, E,D,C,B,,) | %43
"_cresc." (A,,G,,F,,E,, D,,2) uD,2 |!f! (G,,A,,B,,C, D,E,F,G,) |!>(! (A,G,F,E, D,C,B,,A,,)!>)! | %46
!<(! (B,,C,D,E, F,G,A,B,)!<)! |!>(! (CB,A,G, F,E,D,C,)!>)! |!<(! (D,E,F,G, A,B,CD)!<)! | %49
!>(! (CB,A,G, F,D,E,F,)!>)! | (G,F,E,D,) (C,B,,A,,G,,) | !fermata!G,,8 |] %52

